X:5586
T:Rob Roy's Reel. JMT041
O:england
M:4/4
L:1/8
Q:200
S:J.Moore,Tyneside,1841.(29b)
R:Reel
A:Northumbria
H:184
K:D
A|(FA)BA FABA|F-Ade f-eef|F-ABA d-cBA|B-cde f-dd|:
|e|f-dge a-fed|B-cde c-AAg|f-dge afed|B-cde f-ddg|
f-dge a-fed|Bcde c-AAg|f-agb a-fed|B-cde f-dd|]


